COLOR/action 16/16/mesh-gradient-fit.svg

<svg height="16" viewBox="0 0 16 16" width="16" xmlns="http://www.w3.org/2000/svg" xmlns:xlink="http://www.w3.org/1999/xlink"><linearGradient id="a" gradientUnits="userSpaceOnUse" x1="2.45292723522" x2="13.54719212478" y1="2.73933122376" y2="13.26055213624"><stop offset="0" stop-color="#2daaaa"/><stop offset="1" stop-color="#46a926"/></linearGradient><path d="m5.2698067 1.8331329c-.7168639.0446914-1.54225.2688826-2.5303601.7629373l-.2865195.1432602.1432601.2865205c.6205982 1.241196.7612145 2.1311544.6879768 2.8635152-.0732639.7323695-.3681423 1.3276462-.6879768 1.9673149-.3198344.6396673-.6645987 1.3237299-.7512781 2.190532-.08668.866803.092539 1.89586.7512781 3.213338l.1432603.286521.2865205-.143261c1.2411963-.620598 2.1311547-.761214 2.8635158-.687977.7323699.07327 1.3276439.368143 1.9673119.687977.63967.319835 1.323732.664599 2.1905353.751279.866803.08668 1.895859-.09254 3.213338-.751279l.28652-.14326-.143259-.28652c-.620598-1.241188-.761214-2.131155-.687978-2.863515.073264-.7323618.368143-1.3276464.687978-1.967315.319833-.6396687.66459-1.3237307.751277-2.190533.08668-.8668108-.092538-1.8958586-.751277-3.2133376l-.143261-.2865204-.286521.1432602c-1.241196.6205982-2.131146.7612144-2.863516.6879766-.7323697-.0732634-1.3276457-.3681422-1.967315-.6879766-.6396693-.3198345-1.3237299-.6645988-2.1905315-.7512782-.2167028-.0216633-.444024-.0265247-.6829788-.0116847z" fill="url(#a)" stroke-width=".666667"/><path d="m.69129532.69129657h14.61740968v14.61740843h-14.61740968z" fill="none" stroke="#666" stroke-linecap="round" stroke-width="1.382591"/><g stroke-width=".666667"><path d="m5.2695311 1.8333339c-.716864.0446913-1.5418378.2689662-2.5299479.7630207l-.2864583.1432292.1328125.2669271.1536458-.0768229c.9881101-.4940546 1.8130839-.7183294 2.5299479-.7630208.2389547-.01484.466891-.00994.6835937.011719.8668016.086679 1.5504349.4314676 2.1901042.7513021s1.235078.6142366 1.967448.6875c.732369.073238 1.622086-.066902 2.863281-.6875l.286458-.1432291.14323.2864583c.486383.9727657.708278 1.7857154.757812 2.4947916.0064-.7860748-.191923-1.6963469-.757812-2.8281249l-.14323-.2864588-.286458.1432292c-1.241195.6205982-2.130912.7607377-2.863281.6874999-.73237-.0732634-1.3277787-.3676655-1.967448-.6874999s-1.3233026-.6646226-2.1901042-.751302c-.2167027-.0216635-.444639-.026559-.6835937-.0117187zm-1.9804687 3.7695311c-.00204.095245.0038.1963463-.00521.2864583-.073264.7323695-.3676656 1.327779-.6875 1.9674477-.3198345.6396673-.6646227 1.3233019-.7513021 2.190104-.022679.226796-.024063.466177-.00651.717448.00107-.128777-.00569-.262117.00651-.384115.0866828-.8668011.431471-1.5504364.7513055-2.1901037.3198344-.6396687.6142361-1.2350773.6875-1.9674477.019358-.1935771.0206466-.4006176.0052066-.6197916zm9.4218746 5.127604c-.01454.678832.148471 1.488354.692709 2.576823l.01042.01953.132811-.06641-.143228-.286458c-.456565-.91312-.649743-1.633463-.692712-2.243492z" fill="#fff" opacity=".3"/><path d="m2.5859374 2.6731776-.1328125.066406.1432291.2864583c.4565622.9131239.6497397 1.6334619.6927084 2.2434895.014542-.6788304-.1484705-1.4883475-.6927084-2.5768228zm11.5755206 2.5611978c-.0011.1289784.0057.2632381-.0065.3854166-.08669.8668028-.431469 1.5504357-.751302 2.1901043-.319835.6396686-.614237 1.2350866-.6875 1.9674479-.01936.1935767-.02065.4006168-.0052.6197918.0021-.09525-.0038-.196346.0052-.286458.07326-.7323618.367665-1.3277797.6875-1.9674484.319833-.6396686.664614-1.3233019.751302-2.1901042.02268-.2268149.02407-.4674579.0065-.71875zm-12.3229164 5.1966146c-.00653.786198.1917865 1.697375.7578124 2.829427l.1432292.286458.2864584-.143229c1.2411963-.620599 2.1309201-.760737 2.8632811-.6875.7323699.07326 1.3277797.367666 1.9674477.6875.63967.319835 1.3233006.664622 2.1901036.751302.866804.08668 1.896064-.09256 3.213542-.751302l.286458-.143229-.132812-.266928-.153646.07682c-1.317478.65874-2.346738.83798-3.213542.751302-.866803-.08668-1.5504336-.431468-2.1901036-.751302-.639668-.319834-1.2350778-.614236-1.9674477-.6875-.732361-.07324-1.6220848.0669-2.8632811.6875l-.2864584.143232-.1432292-.286458c-.4863827-.972764-.7082783-1.787017-.7578124-2.496093z" opacity=".2"/></g></svg>

<?xml version="1.0" encoding="UTF-8" standalone="no"?>
<svg
   xmlns:dc="http://purl.org/dc/elements/1.1/"
   xmlns:cc="http://creativecommons.org/ns#"
   xmlns:rdf="http://www.w3.org/1999/02/22-rdf-syntax-ns#"
   xmlns:svg="http://www.w3.org/2000/svg"
   xmlns="http://www.w3.org/2000/svg"
   xmlns:sodipodi="http://sodipodi.sourceforge.net/DTD/sodipodi-0.dtd"
   xmlns:inkscape="http://www.inkscape.org/namespaces/inkscape"
   height="16"
   viewBox="0 0 16 16"
   width="16"
   version="1.1"
   id="svg11"
   sodipodi:docname="mesh-gradient-fit.svg"
   inkscape:version="0.92.4 (5da689c313, 2019-01-14)">
  <metadata
     id="metadata17">
    <rdf:RDF>
      <cc:Work
         rdf:about="">
        <dc:format>image/svg+xml</dc:format>
        <dc:type
           rdf:resource="http://purl.org/dc/dcmitype/StillImage" />
        <dc:title></dc:title>
      </cc:Work>
    </rdf:RDF>
  </metadata>
  <defs
     id="defs15" />
  <sodipodi:namedview
     pagecolor="#ffffff"
     bordercolor="#666666"
     borderopacity="1"
     objecttolerance="10"
     gridtolerance="10"
     guidetolerance="10"
     inkscape:pageopacity="0"
     inkscape:pageshadow="2"
     inkscape:window-width="1340"
     inkscape:window-height="944"
     id="namedview13"
     showgrid="false"
     inkscape:zoom="9.8333333"
     inkscape:cx="12"
     inkscape:cy="6.2067281"
     inkscape:window-x="0"
     inkscape:window-y="27"
     inkscape:window-maximized="0"
     inkscape:current-layer="svg11" />
  <linearGradient
     id="a"
     gradientUnits="userSpaceOnUse"
     x1="3.6793911"
     x2="20.320789"
     y1="4.1089969"
     y2="19.890829"
     gradientTransform="scale(0.66666664)">
    <stop
       offset="0"
       stop-color="#2daaaa"
       id="stop2" />
    <stop
       offset="1"
       stop-color="#46a926"
       id="stop4" />
  </linearGradient>
  <path
     d="M 5.2698067,1.8331329 C 4.5529428,1.8778243 3.7275567,2.1020155 2.7394466,2.5960702 L 2.4529271,2.7393304 2.5961872,3.0258509 C 3.2167854,4.2670469 3.3574017,5.1570053 3.284164,5.8893661 3.2109001,6.6217356 2.9160217,7.2170123 2.5961872,7.856681 2.2763528,8.4963483 1.9315885,9.1804109 1.8449091,10.047213 c -0.08668,0.866803 0.092539,1.89586 0.7512781,3.213338 l 0.1432603,0.286521 0.2865205,-0.143261 c 1.2411963,-0.620598 2.1311547,-0.761214 2.8635158,-0.687977 0.7323699,0.07327 1.3276439,0.368143 1.9673119,0.687977 0.63967,0.319835 1.323732,0.664599 2.1905353,0.751279 0.866803,0.08668 1.895859,-0.09254 3.213338,-0.751279 l 0.28652,-0.14326 -0.143259,-0.28652 C 12.783332,11.732843 12.642716,10.842876 12.715952,10.110516 12.789216,9.3781542 13.084095,8.7828696 13.40393,8.143201 13.723763,7.5035323 14.06852,6.8194703 14.155207,5.952668 14.241887,5.0858572 14.062669,4.0568094 13.40393,2.7393304 L 13.260669,2.45281 12.974148,2.5960702 C 11.732952,3.2166684 10.843002,3.3572846 10.110632,3.2840468 9.3782623,3.2107834 8.7829863,2.9159046 8.143317,2.5960702 7.5036477,2.2762357 6.8195871,1.9314714 5.9527855,1.844792 5.7360827,1.8231287 5.5087615,1.8182673 5.2698067,1.8331073 Z"
     id="path7"
     inkscape:connector-curvature="0"
     style="fill:url(#a);stroke-width:0.66666663" />
  <path
     d="M 0.69129532,0.69129657 H 15.308705 V 15.308705 H 0.69129532 Z"
     id="path9"
     inkscape:connector-curvature="0"
     style="fill:none;stroke:#666666;stroke-width:1.38259053;stroke-linecap:round" />
  <path
     style="opacity:0.3;fill:#ffffff;fill-opacity:1;stroke-width:0.66666663"
     d="M 5.2695311,1.8333339 C 4.5526671,1.8780252 3.7276933,2.1023001 2.7395832,2.5963546 L 2.4531249,2.7395838 2.5859374,3.0065109 2.7395832,2.929688 C 3.7276933,2.4356334 4.5526671,2.2113586 5.2695311,2.1666672 c 0.2389547,-0.01484 0.466891,-0.00994 0.6835937,0.011719 0.8668016,0.086679 1.5504349,0.4314676 2.1901042,0.7513021 0.6396693,0.3198345 1.235078,0.6142366 1.967448,0.6875 0.732369,0.073238 1.622086,-0.066902 2.863281,-0.6875 l 0.286458,-0.1432291 0.14323,0.2864583 c 0.486383,0.9727657 0.708278,1.7857154 0.757812,2.4947916 0.0064,-0.7860748 -0.191923,-1.6963469 -0.757812,-2.8281249 L 13.260416,2.4531254 12.973958,2.5963546 C 11.732763,3.2169528 10.843046,3.3570923 10.110677,3.2838545 9.378307,3.2105911 8.7828983,2.916189 8.143229,2.5963546 7.5035597,2.2765202 6.8199264,1.931732 5.9531248,1.8450526 5.7364221,1.8233891 5.5084858,1.8184936 5.2695311,1.8333339 Z M 3.2890624,5.602865 c -0.00204,0.095245 0.0038,0.1963463 -0.00521,0.2864583 -0.073264,0.7323695 -0.3676656,1.327779 -0.6875,1.9674477 -0.3198345,0.6396673 -0.6646227,1.3233019 -0.7513021,2.190104 -0.022679,0.226796 -0.024063,0.466177 -0.00651,0.717448 0.00107,-0.128777 -0.00569,-0.262117 0.00651,-0.384115 C 1.9317331,9.5134069 2.2765213,8.8297716 2.5963558,8.1901043 2.9161902,7.5504356 3.2105919,6.955027 3.2838558,6.2226566 3.3032138,6.0290795 3.3045024,5.822039 3.2890624,5.602865 Z m 9.4218746,5.127604 c -0.01454,0.678832 0.148471,1.488354 0.692709,2.576823 l 0.01042,0.01953 0.132811,-0.06641 -0.143228,-0.286458 c -0.456565,-0.91312 -0.649743,-1.633463 -0.692712,-2.243492 z"
     id="path824"
     inkscape:connector-curvature="0" />
  <path
     style="opacity:0.2;fill:#000000;fill-opacity:1;stroke-width:0.66666663"
     d="M 2.5859374,2.6731776 2.4531249,2.7395836 2.596354,3.0260419 C 3.0529162,3.9391658 3.2460937,4.6595038 3.2890624,5.2695314 3.3036044,4.590701 3.1405919,3.7811839 2.596354,2.6927086 Z M 14.161458,5.2343754 c -0.0011,0.1289784 0.0057,0.2632381 -0.0065,0.3854166 -0.08669,0.8668028 -0.431469,1.5504357 -0.751302,2.1901043 -0.319835,0.6396686 -0.614237,1.2350866 -0.6875,1.9674479 -0.01936,0.1935767 -0.02065,0.4006168 -0.0052,0.6197918 0.0021,-0.09525 -0.0038,-0.196346 0.0052,-0.286458 0.07326,-0.7323618 0.367665,-1.3277797 0.6875,-1.9674484 0.319833,-0.6396686 0.664614,-1.3233019 0.751302,-2.1901042 0.02268,-0.2268149 0.02407,-0.4674579 0.0065,-0.71875 z M 1.8385416,10.43099 c -0.00653,0.786198 0.1917865,1.697375 0.7578124,2.829427 l 0.1432292,0.286458 0.2864584,-0.143229 c 1.2411963,-0.620599 2.1309201,-0.760737 2.8632811,-0.6875 0.7323699,0.07326 1.3277797,0.367666 1.9674477,0.6875 0.63967,0.319835 1.3233006,0.664622 2.1901036,0.751302 0.866804,0.08668 1.896064,-0.09256 3.213542,-0.751302 l 0.286458,-0.143229 -0.132812,-0.266928 -0.153646,0.07682 c -1.317478,0.65874 -2.346738,0.83798 -3.213542,0.751302 -0.866803,-0.08668 -1.5504336,-0.431468 -2.1901036,-0.751302 -0.639668,-0.319834 -1.2350778,-0.614236 -1.9674477,-0.6875 -0.732361,-0.07324 -1.6220848,0.0669 -2.8632811,0.6875 L 2.7395832,13.213541 2.596354,12.927083 C 2.1099713,11.954319 1.8880757,11.140066 1.8385416,10.43099 Z"
     id="path833"
     inkscape:connector-curvature="0" />
</svg>
